app/dist/common/images/gerresheimer-ag.svg

<svg fill="none" height="18" viewBox="0 0 18 18" width="18" xmlns="http://www.w3.org/2000/svg"><path d="m0 13h18v5h-18z" fill="#4ef8f8"/><path d="m0 0h18v13h-18z" fill="#084c5f"/><path d="m5.5427 9.18192c-1.03359.31867-1.31613 1.69668-.38518 2.28458v.0531c-.27355.1505-1.34203 1.0945-.83986 1.4795h.5097c.18057 0 .52432.0174.67449-.0996.11966-.0932.09759-.2967.15855-.4235.15623-.3252.50366-.4554.87282-.476h2.80634s1.58524-.0175 2.21504.0795c.2496.0648.4941.1556.5895.3972.0503.1277.0343.4308.155.5224h1.2774c.1769-.9337-.3667-1.8633-1.3206-1.9263-1.1018-.0728-4.12696-.0728-4.12696-.0728-.48759 0-2.11685-.051-2.15554-.8084-.01362-.26662.30793-.48838.55982-.49141.69543-.00829 1.19199.29981 2.14598.29981 1.4847 0 3.833-.27293 4.0618-2.09319.0766-.60928-.0967-1.07735-.265-1.647.7926 0 1.1543.05653 1.658-.58442.0906-.11535.4064-.38833.3133-.55239-.0918-.12208-.7105-.12208-.8708-.12208h-3.67761c-1.73864 0-4.65899-.10923-4.99863 2.05583-.04358.27778-.04786.62501-.00633.90319.07293.48842.45454.79933.64877 1.22198zm2.58624-3.11869c.85852-.11815 2.15066-.05472 2.83306.52652 1.2108 1.03123-.1834 2.17132-1.30157 2.33841-.98756.1476-2.20815.10893-3.01423-.54398-1.34753-1.09154.40676-2.17282 1.48274-2.32095z" fill="#fff"/></svg>

<!-- by TradingView --><svg width="18" height="18" viewBox="0 0 18 18" fill="none" xmlns="http://www.w3.org/2000/svg">
<rect y="13" width="18" height="5" fill="#4EF8F8"/>
<rect width="18" height="13" fill="#084C5F"/>
<path d="M5.5427 9.18192C4.50911 9.50059 4.22657 10.8786 5.15752 11.4665V11.5196C4.88397 11.6701 3.81549 12.6141 4.31766 12.9991C4.31766 12.9991 4.67933 12.9991 4.82736 12.9991C5.00793 12.9991 5.35168 13.0165 5.50185 12.8995C5.62151 12.8063 5.59944 12.6028 5.6604 12.476C5.81663 12.1508 6.16406 12.0206 6.53322 12H9.33956C9.33956 12 10.9248 11.9825 11.5546 12.0795C11.8042 12.1443 12.0487 12.2351 12.1441 12.4767C12.1944 12.6044 12.1784 12.9075 12.2991 12.9991H13.5765C13.7534 12.0654 13.2098 11.1358 12.2559 11.0728C11.1541 11 8.12894 11 8.12894 11C7.64135 11 6.01209 10.949 5.9734 10.1916C5.95978 9.92498 6.28133 9.70322 6.53322 9.70019C7.22865 9.6919 7.72521 10 8.6792 10C10.1639 10 12.5122 9.72707 12.741 7.90681C12.8176 7.29753 12.6443 6.82946 12.476 6.25981C13.2686 6.25981 13.6303 6.31634 14.134 5.67539C14.2246 5.56004 14.5404 5.28706 14.4473 5.123C14.3555 5.00092 13.7368 5.00092 13.5765 5.00092L9.89889 5.00092C8.16025 5.00092 5.2399 4.89169 4.90026 7.05675C4.85668 7.33453 4.8524 7.68176 4.89393 7.95994C4.96686 8.44836 5.34847 8.75927 5.5427 9.18192ZM8.12894 6.06323C8.98746 5.94508 10.2796 6.00851 10.962 6.58975C12.1728 7.62098 10.7786 8.76107 9.66043 8.92816C8.67287 9.07576 7.45228 9.03709 6.6462 8.38418C5.29867 7.29264 7.05296 6.21136 8.12894 6.06323Z" fill="white"/>
</svg>
